X: 5
T: Michael Preston's Highland Fling
M: 4/4
L: 1/8
R: highland fling
K: Gmaj
|: dB |\
GB B2 GBdB | FA A2 FADF | 
GB B2 GBdg | fgaf g2 :|
|: df |\
gb b2 fgab | agef ge d2 |
[1 gb b2 fgab | agef g2 |
[2 a2 af g2 gd | cAFA G2 |]
